svgs/thin/function.svg

<svg xmlns="http://www.w3.org/2000/svg" viewBox="0 0 640 512"><!--! Font Awesome Pro 6.3.0 by @fontawesome - https://fontawesome.com License - https://fontawesome.com/license (Commercial License) Copyright 2023 Fonticons, Inc. --><path d="M509.7 242.3c-3.125-3.125-8.188-3.125-11.31 0l-66.34 66.34l-66.34-66.34c-3.125-3.125-8.188-3.125-11.31 0s-3.125 8.188 0 11.31L420.7 320l-66.34 66.34c-3.125 3.125-3.125 8.188 0 11.31C355.9 399.2 357.1 400 360 400s4.094-.7813 5.656-2.344l66.34-66.34l66.34 66.34C499.9 399.2 501.1 400 504 400s4.094-.7813 5.656-2.344c3.125-3.125 3.125-8.188 0-11.31L443.3 320l66.34-66.34C512.8 250.5 512.8 245.5 509.7 242.3zM216 32h-64C112.3 32 80 64.31 80 104L80 192h-71.1c-4.422 0-8 3.594-8 8s3.578 8 8 8h72v168c0 30.88-25.12 56-56 56h-16c-4.422 0-8 3.594-8 8s3.578 8 8 8h16c39.7 0 72-32.31 72-72V208h88c4.422 0 8-3.594 8-8S188.4 192 184 192H96V104c0-30.88 25.12-56 56-56h64c4.422 0 8-3.594 8-8S220.4 32 216 32zM592.6 163.6c-2.453-3.688-7.422-4.656-11.09-2.219c-3.672 2.469-4.656 7.438-2.188 11.09C608.5 216.2 624 267.2 624 320s-15.47 103.8-44.72 147.6c-2.469 3.656-1.484 8.625 2.188 11.09C582.8 479.6 584.4 480 585.9 480c2.578 0 5.109-1.25 6.641-3.562C623.6 430.1 640 376 640 320S623.6 209.9 592.6 163.6zM282.5 161.3C278.8 158.9 273.9 159.9 271.4 163.6C240.4 209.9 224 264 224 320s16.41 110.1 47.44 156.4C272.1 478.8 275.5 480 278.1 480c1.531 0 3.078-.4375 4.453-1.344c3.672-2.469 4.656-7.438 2.188-11.09C255.5 423.8 240 372.8 240 320s15.47-103.8 44.72-147.6C287.2 168.8 286.2 163.8 282.5 161.3z"/></svg>

<svg xmlns="http://www.w3.org/2000/svg" viewBox="0 0 640 512"><!-- Font Awesome Pro 6.0.0-alpha2 by @fontawesome - https://fontawesome.com License - https://fontawesome.com/license (Commercial License) --><path d="M509.656 242.344C506.531 239.219 501.469 239.219 498.344 242.344L432 308.688L365.656 242.344C362.531 239.219 357.469 239.219 354.344 242.344S351.219 250.531 354.344 253.656L420.688 320L354.344 386.344C351.219 389.469 351.219 394.531 354.344 397.656C355.906 399.219 357.953 400 360 400S364.094 399.219 365.656 397.656L432 331.312L498.344 397.656C499.906 399.219 501.953 400 504 400S508.094 399.219 509.656 397.656C512.781 394.531 512.781 389.469 509.656 386.344L443.313 320L509.656 253.656C512.781 250.531 512.781 245.469 509.656 242.344ZM216 32H152C112.297 32 80 64.312 80 104V192H8C3.578 192 0 195.594 0 200S3.578 208 8 208H80V376C80 406.875 54.875 432 24 432H8C3.578 432 0 435.594 0 440S3.578 448 8 448H24C63.703 448 96 415.688 96 376V208H184C188.422 208 192 204.406 192 200S188.422 192 184 192H96V104C96 73.125 121.125 48 152 48H216C220.422 48 224 44.406 224 40S220.422 32 216 32ZM592.562 163.562C590.109 159.875 585.141 158.906 581.469 161.344C577.797 163.812 576.812 168.781 579.281 172.438C608.531 216.156 624 267.156 624 320S608.531 423.844 579.281 467.562C576.812 471.219 577.797 476.187 581.469 478.656C582.844 479.562 584.391 480 585.922 480C588.5 480 591.031 478.75 592.562 476.438C623.594 430.125 640 376 640 320S623.594 209.875 592.562 163.562ZM282.531 161.344C278.844 158.938 273.891 159.875 271.438 163.562C240.406 209.875 224 264 224 320S240.406 430.125 271.438 476.438C272.969 478.75 275.5 480 278.078 480C279.609 480 281.156 479.562 282.531 478.656C286.203 476.188 287.188 471.219 284.719 467.562C255.469 423.844 240 372.844 240 320S255.469 216.156 284.719 172.438C287.188 168.781 286.203 163.812 282.531 161.344Z"/></svg>
